assets/img/form-img-5.svg

<svg width="66" height="66" viewBox="0 0 66 66" fill="none" xmlns="http://www.w3.org/2000/svg">
<circle cx="32.7699" cy="32.7699" r="32.7699" fill="#FF7D34"/>
<g clip-path="url(#clip0_1_869)">
<path d="M35.8024 23.3005C35.8024 24.55 35.7965 25.7104 35.8128 26.8708C35.8128 26.9703 35.9505 27.1145 36.0572 27.1605C37.257 27.6687 38.4642 28.1634 39.6685 28.6597C40.6639 29.0698 41.0535 29.462 41.4608 30.4932C41.7141 30.4932 41.9837 30.4842 42.2533 30.4946C42.6014 30.508 42.8221 30.7264 42.8236 31.0429C42.825 31.3534 42.5954 31.6357 42.2622 31.5956C41.6934 31.5273 41.4312 31.7368 41.1809 32.2627C40.6654 33.3459 39.3945 33.7604 38.2021 33.3518C38.045 33.2983 37.8895 33.2374 37.651 33.1483C38.1547 34.1304 38.6198 35.0337 39.0982 35.9683C41.6104 34.9847 44.0471 35.0961 46.3712 36.4809C48.125 37.5269 49.3203 39.0468 49.9188 41.0051C51.126 44.9558 49.2566 49.0061 45.4528 50.7415C41.9437 52.3431 37.5962 50.9762 35.4958 47.6748C33.3732 44.3392 33.8442 39.243 38.0895 36.4824C37.8703 36.053 37.6495 35.6191 37.4007 35.1303C37.3089 35.2818 37.2407 35.3888 37.1785 35.4988C35.681 38.1375 34.179 40.7748 32.6933 43.4195C32.4874 43.7865 32.237 43.9455 31.809 43.9351C30.7869 43.9083 29.7634 43.9321 28.7398 43.9217C28.5132 43.9187 28.4154 43.9767 28.3902 44.2203C28.0229 47.6391 25.5936 50.3953 22.2564 51.1931C17.6334 52.2971 13.0089 49.0462 12.4816 44.3214C11.9942 39.9546 14.9908 36.0307 19.3013 35.4022C20.8388 35.1778 22.3186 35.4022 23.7317 36.0545C23.9094 36.1362 24.0872 36.2179 24.299 36.3145C24.8323 35.4854 25.3611 34.6712 25.8795 33.8481C25.918 33.7871 25.8988 33.6579 25.8603 33.5866C25.4722 32.8853 25.0811 32.1855 24.6693 31.4975C24.6101 31.3995 24.4442 31.3237 24.3212 31.3148C23.9776 31.2895 23.631 31.3148 23.2858 31.3044C22.8741 31.2925 22.6326 31.0845 22.6222 30.7561C22.6104 30.4129 22.8578 30.1826 23.2873 30.1767C24.2235 30.1663 25.1611 30.1722 26.0987 30.1722C26.2291 30.1722 26.358 30.1722 26.5624 30.1722C26.3387 29.9137 26.1624 29.7295 26.0084 29.5274C24.7641 27.8901 24.8634 25.645 26.3061 24.137C27.5681 22.8176 28.8642 21.5264 30.1959 20.2769C30.7351 19.7702 31.4105 19.4107 32.0415 18.9709C31.6386 18.335 31.7705 17.6975 32.2756 17.0973C32.474 16.8611 32.6607 16.6144 32.8621 16.3811C33.1436 16.0558 33.4709 15.9934 33.7287 16.2043C34.0027 16.4287 34.0116 16.7392 33.742 17.0854C33.5302 17.3588 33.2976 17.6158 33.0977 17.8966C33.0206 18.0051 32.951 18.1879 32.9925 18.2874C33.0325 18.381 33.2236 18.4612 33.348 18.4612C36.195 18.4702 39.0434 18.4731 41.8904 18.4657C42.5495 18.4642 42.865 17.965 42.6206 17.3528C41.9481 15.6665 40.6106 14.9474 38.8968 14.7572C37.7162 14.6249 36.626 14.8523 35.6069 15.4704C35.2307 15.6992 34.9077 15.6219 34.7404 15.3218C34.5611 15.0008 34.6796 14.7022 35.0796 14.4764C37.3711 13.1852 39.6522 13.2669 41.8637 14.6324C42.8591 15.246 43.4946 16.1999 43.7849 17.3469C43.9745 18.0957 43.6827 18.6901 43.1302 19.1937C42.9984 19.3141 42.8621 19.4939 42.8369 19.6618C42.3718 22.8517 39.1367 24.6882 36.1757 23.4312C36.0987 23.3985 36.0202 23.3747 35.8009 23.296L35.8024 23.3005ZM39.9381 37.6056C41.132 37.1361 42.3288 37.0172 43.5316 37.2847C47.6391 38.197 49.6758 42.6157 47.6924 46.3346C47.3784 46.923 46.897 47.4252 46.4571 47.9378C46.2275 48.2052 45.8927 48.1844 45.6676 47.9675C45.4335 47.7417 45.4276 47.4564 45.6572 47.1726C45.7431 47.0671 45.8468 46.978 45.9372 46.8769C47.1325 45.5635 47.5858 44.0212 47.217 42.2873C46.7533 40.1077 44.9684 38.5357 42.7554 38.3039C41.9822 38.2237 41.2208 38.3129 40.4728 38.6293C40.541 38.766 40.5943 38.876 40.6491 38.9844C41.3068 40.2681 41.9659 41.5519 42.6251 42.8356C42.6814 42.9455 42.7465 43.054 42.7836 43.1699C42.8769 43.467 42.7984 43.7137 42.5169 43.8593C42.2355 44.0049 41.9896 43.9291 41.803 43.6765C41.7378 43.5874 41.6919 43.4849 41.64 43.3868C40.969 42.0823 40.2995 40.7763 39.6285 39.4718C39.5752 39.3678 39.5115 39.2682 39.4508 39.1657C37.7251 40.2919 36.8452 42.4879 37.3118 44.4506C38.0332 47.4861 40.9794 49.1338 43.9552 48.1636C44.4204 48.0121 44.7314 48.1116 44.8544 48.4534C44.9758 48.7891 44.7862 49.0774 44.3256 49.2334C42.6443 49.7995 41.009 49.691 39.4211 48.8931C35.9402 47.1429 34.9626 42.3973 37.4911 39.4376C37.9102 38.9458 38.4168 38.5283 38.9012 38.0588C38.8212 37.9057 38.7279 37.7245 38.6331 37.5417C35.7298 39.2623 34.4041 43.2739 36.1994 46.6422C37.9784 49.9778 42.1185 51.2392 45.4957 49.4771C48.833 47.7357 50.138 43.5309 48.3442 40.1359C46.5237 36.6919 42.511 35.7157 39.6389 37.0172C39.7322 37.203 39.8255 37.3872 39.9366 37.6071L39.9381 37.6056ZM22.6741 38.8388C20.8773 37.8196 18.3414 38.2415 16.8291 39.7897C15.1923 41.4642 14.8901 44.0064 16.0929 45.9944C17.2897 47.9734 19.6568 48.8991 21.8401 48.2587C24.3035 47.5366 25.4322 45.2559 25.4233 43.9306C25.2915 43.9306 25.1581 43.9306 25.0248 43.9306C23.5347 43.9306 22.0445 43.9276 20.5544 43.9336C20.2863 43.9336 20.0197 43.8831 19.9515 43.6171C19.8997 43.418 19.9782 43.1773 20.0315 42.9634C20.0597 42.8504 20.1574 42.7539 20.2241 42.6499C21.0373 41.3855 21.8505 40.1196 22.6741 38.8388ZM40.2269 30.4932C40.0181 30.0756 39.704 29.8988 39.3589 29.7562C38.0065 29.199 36.6556 28.6404 35.3047 28.0817C34.7122 27.8366 34.6693 27.7771 34.6796 27.1531C34.7019 25.856 34.7404 24.5589 34.7522 23.2633C34.7581 22.4788 34.1508 21.9202 33.3732 21.9558C32.6977 21.9855 32.1778 22.4788 32.1526 23.1964C32.0889 24.9735 32.0534 26.7519 32.0163 28.5304C32.0015 29.2867 32.277 29.6849 32.9836 29.9791C33.8679 30.3475 34.7537 30.7145 35.641 31.0786C36.6186 31.4812 37.5918 31.8942 38.5753 32.2776C39.2908 32.5569 40.0566 32.233 40.1988 31.6105C39.8507 31.6105 39.5056 31.6194 39.1619 31.6075C38.8138 31.5971 38.5916 31.3787 38.5842 31.0652C38.5768 30.7338 38.8034 30.505 39.1693 30.4946C39.5011 30.4842 39.8314 30.4932 40.2284 30.4932H40.2269ZM26.6453 43.9514C26.2661 48.0982 22.1157 50.3656 18.654 49.3419C15.5181 48.4147 13.5822 45.0138 14.4368 41.7985C14.8753 40.1463 15.8322 38.8641 17.309 38.0098C19.2687 36.8791 21.2832 36.8954 23.3125 37.8478C23.4414 37.6487 23.5525 37.4749 23.6665 37.301C21.2136 35.9148 17.7948 36.2298 15.5507 38.503C13.2948 40.7882 12.9008 44.2471 14.5894 47.0225C16.1951 49.6628 19.5412 50.9094 22.4682 49.9763C25.5344 49.0001 27.1963 46.1964 27.2586 43.9514H26.6468H26.6453ZM33.3287 32.1691C32.4903 32.6431 31.7393 33.0621 30.9958 33.493C30.9232 33.536 30.8624 33.6401 30.8417 33.7277C30.3736 35.7053 29.9056 37.6829 29.4553 39.6649C29.3249 40.2355 29.6923 40.7971 30.2477 40.9546C30.8639 41.1284 31.4801 40.7674 31.646 40.0824C32.2178 37.7111 32.7747 35.3383 33.3228 32.961C33.3747 32.7337 33.3302 32.4841 33.3302 32.1691H33.3287ZM26.6735 25.5737C26.0602 26.4771 26.1136 27.9495 26.9297 28.8424C28.0258 30.043 29.1975 31.1736 30.344 32.3266C30.4018 32.3846 30.5558 32.4217 30.621 32.386C31.2431 32.0503 31.8564 31.6952 32.4385 31.3653C30.501 29.4189 28.5843 27.4933 26.672 25.5737H26.6735ZM30.8802 27.9733C30.9173 27.9762 30.9528 27.9792 30.9898 27.9822C30.9898 26.4637 30.975 24.9452 30.9943 23.4267C31.0121 22.1059 31.7231 21.1683 32.8858 20.8816C33.1184 20.8251 33.3613 20.8103 33.6087 20.7761C33.5139 20.4448 33.4295 20.1521 33.3435 19.849C32.5126 20.0406 31.7675 20.372 31.1646 20.9291C30.1796 21.8414 29.239 22.8027 28.2791 23.7447C27.9918 24.027 27.7059 24.3093 27.4659 24.5455C28.6258 25.7104 29.753 26.8411 30.8802 27.9733ZM25.2426 36.937C27.1475 38.4451 28.211 40.3915 28.4317 42.7866H31.0358C30.8857 42.3884 30.6289 42.161 30.2655 42.1046C29.3886 41.9709 28.7828 41.4999 28.4539 40.6663C28.1977 40.0156 28.3547 39.3856 28.4924 38.7422C28.5369 38.5387 28.4984 38.2757 28.4021 38.0915C28.0066 37.3397 27.5726 36.6072 27.1534 35.8672C26.9697 35.5433 26.7846 35.218 26.5816 34.8614C26.1239 35.5716 25.6973 36.2327 25.2426 36.9385V36.937ZM40.538 19.6127C40.501 20.0421 40.6046 20.5919 39.9855 20.6171C39.2997 20.6439 39.4315 20.0421 39.3722 19.6142H37.5933C37.5933 20.5829 37.5859 21.5309 37.6066 22.4788C37.6081 22.5546 37.7903 22.6839 37.8969 22.6928C39.7159 22.8339 41.4193 21.4462 41.6815 19.6127H40.5395H40.538ZM36.4497 34.4884C35.7195 34.4884 35.0692 34.4974 34.4189 34.484C34.1893 34.4795 34.1094 34.5568 34.0575 34.7826C33.6591 36.5225 33.2339 38.2549 32.8384 39.9962C32.6799 40.6931 32.4163 41.3082 31.7956 41.7376C31.883 41.8921 31.9645 42.0333 32.0711 42.2205C33.5361 39.6352 34.9714 37.1004 36.4497 34.4899V34.4884ZM23.6384 39.4331C22.9066 40.5712 22.2045 41.6618 21.4876 42.7791H25.4662C25.2915 41.4152 24.6886 40.332 23.6384 39.4331ZM29.7545 33.3399C29.042 32.6253 28.4125 31.9908 27.78 31.3594C27.7459 31.3252 27.7 31.2821 27.66 31.2821C27.0808 31.2776 26.5031 31.2791 25.8529 31.2791C26.2513 31.9834 26.5905 32.5941 26.9431 33.1958C26.983 33.2656 27.0941 33.3325 27.1741 33.334C27.9962 33.3444 28.8168 33.3399 29.7545 33.3399ZM24.2546 38.4718C25.6381 39.5995 26.4068 41.0422 26.6142 42.7866H27.2926C27.0897 40.7718 26.2024 39.1702 24.6338 37.8924C24.5049 38.0885 24.3909 38.2623 24.2531 38.4703L24.2546 38.4718ZM36.4305 22.299V19.6142H34.4737C34.7093 20.8222 35.3329 21.7017 36.4305 22.299ZM28.9679 36.7676C29.1575 35.9594 29.3249 35.2432 29.4967 34.5078H27.6881C28.1147 35.261 28.5176 35.9727 28.9679 36.7676ZM36.4912 33.3265C36.2927 32.9863 36.1979 32.6089 35.9624 32.4633C35.4914 32.1736 34.9403 32.0131 34.4367 31.8036V33.3251H36.4927L36.4912 33.3265Z" fill="white"/>
</g>
<defs>
<clipPath id="clip0_1_869">
<rect width="37.8549" height="37.8549" fill="white" transform="translate(12.4297 13.5598)"/>
</clipPath>
</defs>
</svg>

<?xml version="1.0"?>
<svg width="66" height="66" xmlns="http://www.w3.org/2000/svg" xmlns:svg="http://www.w3.org/2000/svg">
 <defs>
  <clipPath id="clip0_1_869">
   <rect fill="white" height="37.85" id="svg_1" transform="translate(12.4297 13.5598)" width="37.85"/>
  </clipPath>
 </defs>
 <g class="layer">
  <title>Layer 1</title>
  <circle cx="32.77" cy="32.77" fill="#6d9bc6" id="svg_2" r="32.77"/>
  <g clip-path="url(#clip0_1_869)" id="svg_3">
   <path d="m35.8,23.3c0,1.25 0,2.41 0.01,3.57c0,0.1 0.14,0.24 0.25,0.29c1.2,0.51 2.4,1 3.61,1.5c0.99,0.41 1.38,0.8 1.79,1.83c0.25,0 0.52,-0.01 0.79,0c0.35,0.02 0.57,0.24 0.57,0.55c0.01,0.31 -0.22,0.6 -0.56,0.56c-0.57,-0.07 -0.83,0.14 -1.08,0.66c-0.51,1.09 -1.79,1.5 -2.98,1.09c-0.15,-0.05 -0.31,-0.11 -0.55,-0.2c0.5,0.98 0.97,1.88 1.45,2.82c2.51,-0.99 4.95,-0.87 7.27,0.51c1.76,1.05 2.95,2.57 3.55,4.53c1.21,3.95 -0.66,8 -4.47,9.73c-3.51,1.6 -7.85,0.24 -9.95,-3.07c-2.13,-3.33 -1.66,-8.43 2.59,-11.19c-0.22,-0.43 -0.44,-0.86 -0.69,-1.35c-0.09,0.15 -0.16,0.26 -0.22,0.37c-1.5,2.64 -3,5.27 -4.49,7.92c-0.2,0.37 -0.45,0.53 -0.88,0.52c-1.02,-0.03 -2.05,-0.01 -3.07,-0.02c-0.23,0 -0.32,0.06 -0.35,0.3c-0.37,3.42 -2.8,6.18 -6.13,6.97c-4.63,1.11 -9.25,-2.14 -9.78,-6.87c-0.49,-4.37 2.51,-8.29 6.82,-8.92c1.54,-0.22 3.02,0 4.43,0.65c0.18,0.09 0.36,0.17 0.57,0.26c0.53,-0.82 1.06,-1.64 1.58,-2.46c0.04,-0.06 0.02,-0.19 -0.02,-0.26c-0.39,-0.7 -0.78,-1.4 -1.19,-2.09c-0.06,-0.1 -0.23,-0.18 -0.35,-0.19c-0.34,-0.02 -0.69,0 -1.03,-0.01c-0.42,-0.01 -0.66,-0.22 -0.67,-0.54c-0.01,-0.35 0.24,-0.58 0.67,-0.58c0.93,-0.01 1.87,-0.01 2.81,-0.01c0.13,0 0.26,0 0.46,0c-0.22,-0.26 -0.4,-0.44 -0.55,-0.64c-1.25,-1.64 -1.15,-3.89 0.3,-5.39c1.26,-1.32 2.55,-2.61 3.89,-3.86c0.54,-0.51 1.21,-0.87 1.84,-1.31c-0.4,-0.63 -0.27,-1.27 0.24,-1.87c0.19,-0.24 0.38,-0.49 0.58,-0.72c0.28,-0.32 0.61,-0.39 0.87,-0.18c0.27,0.23 0.28,0.54 0.01,0.89c-0.21,0.27 -0.44,0.53 -0.64,0.81c-0.08,0.11 -0.15,0.29 -0.11,0.39c0.04,0.09 0.23,0.17 0.36,0.17c2.85,0.01 5.69,0.01 8.54,0.01c0.66,-0.01 0.98,-0.51 0.73,-1.12c-0.67,-1.68 -2.01,-2.4 -3.72,-2.59c-1.18,-0.14 -2.27,0.09 -3.29,0.71c-0.38,0.23 -0.7,0.15 -0.87,-0.15c-0.18,-0.32 -0.06,-0.62 0.34,-0.84c2.29,-1.29 4.57,-1.21 6.78,0.15c1,0.62 1.63,1.57 1.92,2.72c0.19,0.75 -0.1,1.34 -0.65,1.84c-0.13,0.12 -0.27,0.3 -0.29,0.47c-0.47,3.19 -3.7,5.03 -6.66,3.77c-0.08,-0.03 -0.16,-0.06 -0.38,-0.13l0,0zm4.14,14.31c1.19,-0.47 2.39,-0.59 3.59,-0.33c4.11,0.92 6.15,5.34 4.16,9.05c-0.31,0.59 -0.79,1.1 -1.23,1.61c-0.23,0.27 -0.57,0.24 -0.79,0.03c-0.24,-0.23 -0.24,-0.51 -0.01,-0.8c0.08,-0.1 0.19,-0.19 0.28,-0.29c1.19,-1.32 1.65,-2.86 1.28,-4.59c-0.47,-2.18 -2.25,-3.75 -4.46,-3.99c-0.78,-0.08 -1.54,0.01 -2.29,0.33c0.07,0.14 0.12,0.25 0.18,0.35c0.66,1.29 1.32,2.57 1.98,3.86c0.05,0.11 0.12,0.21 0.15,0.33c0.1,0.3 0.02,0.54 -0.26,0.69c-0.28,0.14 -0.53,0.07 -0.72,-0.18c-0.06,-0.09 -0.11,-0.2 -0.16,-0.29c-0.67,-1.31 -1.34,-2.61 -2.01,-3.92c-0.05,-0.1 -0.12,-0.2 -0.18,-0.3c-1.72,1.12 -2.6,3.32 -2.14,5.28c0.72,3.04 3.67,4.68 6.65,3.71c0.46,-0.15 0.77,-0.05 0.89,0.29c0.13,0.34 -0.06,0.63 -0.52,0.78c-1.69,0.57 -3.32,0.46 -4.91,-0.34c-3.48,-1.75 -4.46,-6.49 -1.93,-9.45c0.42,-0.49 0.93,-0.91 1.41,-1.38c-0.08,-0.15 -0.17,-0.34 -0.27,-0.52c-2.9,1.72 -4.23,5.73 -2.43,9.1c1.78,3.34 5.92,4.6 9.3,2.84c3.33,-1.74 4.64,-5.95 2.84,-9.34c-1.82,-3.45 -5.83,-4.42 -8.7,-3.12c0.09,0.18 0.19,0.37 0.3,0.59l0,0zm-17.27,1.23c-1.79,-1.02 -4.33,-0.6 -5.84,0.95c-1.64,1.67 -1.94,4.22 -0.74,6.2c1.2,1.98 3.57,2.91 5.75,2.27c2.46,-0.72 3.59,-3 3.58,-4.33c-0.13,0 -0.26,0 -0.4,0c-1.49,0 -2.98,0 -4.47,0c-0.26,0 -0.53,-0.05 -0.6,-0.31c-0.05,-0.2 0.03,-0.44 0.08,-0.66c0.03,-0.11 0.13,-0.21 0.19,-0.31c0.82,-1.26 1.63,-2.53 2.45,-3.81zm17.56,-8.35c-0.21,-0.41 -0.53,-0.59 -0.87,-0.73c-1.35,-0.56 -2.7,-1.12 -4.06,-1.68c-0.59,-0.24 -0.63,-0.3 -0.62,-0.93c0.02,-1.29 0.06,-2.59 0.07,-3.89c0.01,-0.78 -0.6,-1.34 -1.38,-1.3c-0.67,0.03 -1.19,0.52 -1.22,1.24c-0.06,1.77 -0.1,3.55 -0.13,5.33c-0.02,0.76 0.26,1.15 0.96,1.45c0.89,0.37 1.77,0.73 2.66,1.1c0.98,0.4 1.95,0.81 2.94,1.2c0.71,0.28 1.48,-0.05 1.62,-0.67c-0.35,0 -0.69,0.01 -1.04,0c-0.35,-0.01 -0.57,-0.23 -0.58,-0.54c0,-0.34 0.22,-0.57 0.59,-0.58c0.33,-0.01 0.66,0 1.06,0l0,0zm-13.58,13.46c-0.38,4.15 -4.53,6.42 -8,5.39c-3.13,-0.93 -5.07,-4.33 -4.21,-7.54c0.44,-1.65 1.39,-2.94 2.87,-3.79c1.96,-1.13 3.97,-1.11 6,-0.16c0.13,-0.2 0.24,-0.38 0.36,-0.55c-2.46,-1.39 -5.88,-1.07 -8.12,1.2c-2.26,2.29 -2.65,5.75 -0.96,8.52c1.61,2.64 4.95,3.89 7.88,2.96c3.06,-0.98 4.73,-3.78 4.79,-6.03l-0.61,0l0,0zm6.68,-11.78c-0.84,0.47 -1.59,0.89 -2.33,1.32c-0.08,0.05 -0.14,0.15 -0.16,0.24c-0.47,1.98 -0.93,3.95 -1.38,5.93c-0.14,0.58 0.23,1.14 0.79,1.29c0.61,0.18 1.23,-0.18 1.4,-0.87c0.57,-2.37 1.12,-4.74 1.67,-7.12c0.05,-0.23 0.01,-0.48 0.01,-0.79l0,0zm-6.66,-6.6c-0.61,0.91 -0.56,2.38 0.26,3.27c1.1,1.2 2.27,2.33 3.41,3.49c0.06,0.05 0.22,0.09 0.28,0.06c0.62,-0.34 1.24,-0.69 1.82,-1.02c-1.94,-1.95 -3.86,-3.88 -5.77,-5.8l0,0zm4.21,2.4c0.04,0.01 0.07,0.01 0.11,0.01c0,-1.52 -0.01,-3.03 0,-4.55c0.02,-1.32 0.73,-2.26 1.9,-2.55c0.23,-0.05 0.47,-0.07 0.72,-0.1c-0.1,-0.34 -0.18,-0.63 -0.27,-0.93c-0.83,0.19 -1.57,0.52 -2.18,1.08c-0.98,0.91 -1.92,1.87 -2.88,2.81c-0.29,0.29 -0.57,0.57 -0.81,0.81c1.16,1.16 2.28,2.29 3.41,3.42zm-5.64,8.97c1.91,1.51 2.97,3.45 3.19,5.85l2.61,0c-0.15,-0.4 -0.41,-0.63 -0.77,-0.69c-0.88,-0.13 -1.49,-0.6 -1.82,-1.43c-0.25,-0.65 -0.1,-1.28 0.04,-1.93c0.05,-0.2 0.01,-0.46 -0.09,-0.65c-0.39,-0.75 -0.83,-1.48 -1.25,-2.22c-0.18,-0.33 -0.37,-0.65 -0.57,-1.01c-0.46,0.71 -0.88,1.37 -1.34,2.08l0,0zm15.3,-17.33c-0.04,0.43 0.06,0.98 -0.55,1.01c-0.69,0.02 -0.56,-0.58 -0.62,-1.01l-1.78,0c0,0.97 0,1.92 0.02,2.87c0,0.07 0.18,0.2 0.29,0.21c1.82,0.14 3.52,-1.24 3.78,-3.08l-1.14,0l0,0zm-4.09,14.88c-0.73,0 -1.38,0.01 -2.03,-0.01c-0.23,0 -0.31,0.08 -0.36,0.3c-0.4,1.74 -0.83,3.47 -1.22,5.22c-0.16,0.69 -0.42,1.31 -1.04,1.74c0.08,0.15 0.16,0.29 0.27,0.48c1.47,-2.58 2.9,-5.12 4.38,-7.73l0,0zm-12.81,4.94c-0.73,1.14 -1.44,2.23 -2.15,3.35l3.98,0c-0.18,-1.36 -0.78,-2.45 -1.83,-3.35zm6.11,-6.09c-0.71,-0.71 -1.34,-1.35 -1.97,-1.98c-0.03,-0.03 -0.08,-0.08 -0.12,-0.08c-0.58,0 -1.16,0 -1.81,0c0.4,0.7 0.74,1.31 1.09,1.92c0.04,0.07 0.15,0.13 0.23,0.13c0.83,0.01 1.65,0.01 2.58,0.01zm-5.5,5.13c1.39,1.13 2.16,2.57 2.36,4.32l0.68,0c-0.2,-2.02 -1.09,-3.62 -2.66,-4.9c-0.13,0.2 -0.24,0.37 -0.38,0.58l0,0zm12.18,-16.17l0,-2.69l-1.96,0c0.24,1.21 0.86,2.09 1.96,2.69zm-7.46,14.47c0.19,-0.81 0.35,-1.53 0.53,-2.26l-1.81,0c0.42,0.75 0.83,1.46 1.28,2.26zm7.52,-3.44c-0.2,-0.34 -0.29,-0.72 -0.53,-0.87c-0.47,-0.29 -1.02,-0.45 -1.52,-0.66l0,1.53l2.05,0l0,0z" fill="white" id="svg_4"/>
  </g>
 </g>
</svg>
